X:1
T:John Finlayson's Jig
C:Andrew Rankine
R:Jig
B:The Complete Andrew Rankine Collection
Z:arr. Terry Traub 3-3-02
M:6/8
K:D
L: 1/8
B |\
"D"ABA fed | A3- A2B |\
ABA "Ddim"BAB | "A7"c3- c3 |\
ABA gfe | "(G)"B3- B2d |
[1 "A7"cBc AE^E | "D"F3- F2 :|\
[2 "A7"cBc ABc | "D"d3- d2 \
|: B |\
"D"AD^E FA^G | A3- A2B |\
A^GA "Ddim"de=c |
"A7"c3- c2d |\
efg gae | g3- g2f |\
[1 "A7"edd cE^E | "D"F3- F2 :|\
[2 "A7"edd cBc | "D"d3- d3 |]
